X:137
T:Lebedich un Freilech
O:klezmer
M:4/4
L:1/8
Q:1/4=
K:Am
V:1
A^G/A/ _BA GF EA  |:"Dm" D3/2 D/F(E E)D EF |A^G B(A A)^G FE |D3/2 D/F(E E)D EF |
|1 A^G B^G A.A, .B,.^C :|2 (D4 D)|| |]D FA |"Dm" d2 d2 d2 de |
"Am" c/B/A A(A A)D FA |"Dm" d2 d2 d2 de |"Am" c/B/A A(A A)G FE |"Dm" D3/2 D/F(E E)D EF |
A^G B(A A)^G FE |D3/2 D/F(E E)D EF |(D4 D) |:"Dm" D GA |
"G" (B4 B)A BA |GD3 z.D .G.A |"D7" B3/2 A/B3/2 A/B3/2 A/B3/2 A/|"G" GD3 z.D .G.A |
"G" B4 "Gm" _B4 |"A" .A.G .^F(E E).E .^F.G |"D" A.^F "A7" G.E "D" ^F.D "A7" E.^C |"D" (D4 D):|





